gc/_inc/system.svg

<svg xmlns="http://www.w3.org/2000/svg"><g fill="#fff"><path d="m72.276 64.549v13.272h-54.921v33.894h40.017v-9.393h-23.073v-14.19h38.997v25.881c-.168 4.338-8.838 13.011-13.68 13.011-8.985 0-33.27 0-44.685 0-6.294 0-14.931-8.634-14.931-12.99 0-13.245 0-26.151 0-37.44 0-7.29 4.755-12.045 10.95-12.045z"/><path d="m114.825 111.358v14.7h-45.249l36.75-62.247h14.547l28.176 47.544v-47.544h16.002l25.188 42.645 25.113-42.645h15.849v62.247h-15.849l-.078-31.623-18.375 31.623h-13.473l-18.3-31.701-.075 31.701h-27.027l-24.96-42.648-16.539 27.945z"/><path d="m237.096 63.811v62.247h63.852v-14.703h-46.551v-10.719h26.952v-13.626h-26.952v-9.801h46.551v-13.398z"/><path d="m364.752 88.285h15.924v-13.476s1.734-11.073-9.801-11.073c0 0-37.056 0-50.22 0-4.95 0-7.299 2.349-7.299 6.123v44.1c0 6.18 5.922 12.099 9.699 12.099h49.155s8.559 1.17 8.559-8.424c0-9.597 0-18.324 0-18.324h-15.963v12.147h-35.526v-33.024h34.251v9.849z"/><path d="m386.85 63.733h17.151v47.775h35.487v-47.775h17.169v51.489s1.092 11.025-14.679 11.025c-15.774 0-41.649 0-41.649 0s-13.476 1.227-13.476-11.025c-.003-8.535-.003-51.489-.003-51.489z"/><path d="m530.151 100.435v16.011c0 5.67-4.164 9.837-17.163 9.837-11.526 0-50.211 0-50.211 0v-62.547h58.824c5.415 0 8.553 3.135 8.553 8.574v17.127c0 1.359-1.851 3.699-6.102 3.699.027.291 0 0 0 1.188 2.853 0 6.099 3.246 6.099 6.111zm-15.924 9.864c0-1.446 0-5.28 0-7.314 0-2.022-.477-2.499-1.227-2.499-1.533 0-33.051 0-33.051 0v11.025h31.851c1.764 0 2.427-.663 2.427-1.212zm0-24.501c0-1.446 0-5.28 0-7.314 0-2.019-.477-2.496-1.227-2.496-1.533 0-33.051 0-33.051 0v11.022h31.851c1.764 0 2.427-.663 2.427-1.212z"/><path d="m536.226 126.28h63.774v-14.847h-47.85v-10.872h26.949v-13.551h-26.949v-9.801h46.626v-13.551h-62.55z"/><path d="m234.369.652v7.35h14.697v39.123h9.903v-39.123h14.598v-7.35z"/><path d="m13.227.034v46.473h8.574v-34.146l18.375 34.146h9.723v-46.473h-9.798v28.02l-14.7-28.02z"/><path d="m160.212.034v46.473h8.574v-34.146l18.375 34.146h9.726v-46.473h-9.801v28.02l-14.697-28.02z"/><path d="m100.182.034h9.78v46.473h-9.78z"/><path d="m321.927 17.158v1.251h26.949v7.35h-26.949v9.801c0 1.053 2.586 3.636 3.636 3.636h23.313v7.416s-19.806 0-26.949 0c-5.04 0-8.601-4.332-8.601-8.601 0-1.02 0-22.05 0-29.424 0-5.346 3.201-8.553 8.55-8.553h27v7.35s-16.284 0-22.05 0c-2.349 0-4.899 2.553-4.899 3.753"/><path d="m509.424 8.611v29.472c0 2.229-6.294 8.526-9.945 8.526-7.353 0-26.877 0-26.877 0v-46.575h24.426c7.593 0 12.396 4.803 12.396 8.577zm-8.673 26.973c0-3.186 0-17.676 0-24.45 0-.858-2.889-3.75-4.911-3.75-3.714 0-14.664 0-14.664 0v33.075h14.7c1.506 0 4.875-3.369 4.875-4.875z"/><path d="m588.999 11.059v24.429c0 7.041-5.292 12.324-13.401 12.324-.036 0-.06 0-.099 0-6.969 0-4.971 0-12.222 0h-.099c-7.839 0-13.032-4.914-13.389-11.589-.012-.246-.012-.489-.012-.735 0-4.656 0-19.818 0-24.426 0-.846 0-1.335 0-1.335 0-4.68 5.046-9.726 10.989-9.726h17.148c7.191-.003 11.085 3.882 11.085 11.058zm-9.861 23.313c0-1.152 0-20.016 0-22.086 0-1.8-3.135-4.938-4.899-4.938s-9.726 0-9.726 0c-2.523 0-4.974 2.451-4.974 4.74v22.284c0 3.489 1.335 4.827 3.711 4.827h11.064c2.376 0 4.824-2.451 4.824-4.827z"/><path d="m389.904.652v46.473h8.574v-34.146l18.375 34.146h9.723v-46.473h-9.798v28.02l-14.7-28.02z"/></g></svg>

<?xml version="1.0" encoding="utf-8"?>
<svg version="1.1" xmlns="http://www.w3.org/2000/svg">
  <g>
    <path d="M 72.276 64.549 L 72.276 77.821 L 17.355 77.821 L 17.355 111.715 L 57.372 111.715 L 57.372 102.322 L 34.299 102.322 L 34.299 88.132 L 73.296 88.132 C 73.296 88.132 73.296 103.606 73.296 114.013 C 73.128 118.351 64.458 127.024 59.616 127.024 C 50.631 127.024 26.346 127.024 14.931 127.024 C 8.637 127.024 0 118.39 0 114.034 C 0 100.789 0 87.883 0 76.594 C 0 69.304 4.755 64.549 10.95 64.549 C 21.207 64.549 72.276 64.549 72.276 64.549 Z" style="fill: rgb(255, 255, 255);"/>
    <polygon points="114.825 111.358 114.825 126.058 69.576 126.058 106.326 63.811 120.873 63.811 149.049 111.355 149.049 63.811 165.051 63.811 190.239 106.456 215.352 63.811 231.201 63.811 231.201 126.058 215.352 126.058 215.274 94.435 196.899 126.058 183.426 126.058 165.126 94.357 165.051 126.058 138.024 126.058 113.064 83.41 96.525 111.355" style="fill: rgb(255, 255, 255);"/>
    <polygon points="237.096 63.811 237.096 126.058 300.948 126.058 300.948 111.355 254.397 111.355 254.397 100.636 281.349 100.636 281.349 87.01 254.397 87.01 254.397 77.209 300.948 77.209 300.948 63.811" style="fill: rgb(255, 255, 255);"/>
    <path d="M 364.752 88.285 L 380.676 88.285 L 380.676 74.809 C 380.676 74.809 382.41 63.736 370.875 63.736 C 370.875 63.736 333.819 63.736 320.655 63.736 C 315.705 63.736 313.356 66.085 313.356 69.859 C 313.356 76.24 313.356 100.435 313.356 113.959 C 313.356 120.139 319.278 126.058 323.055 126.058 C 334.08 126.058 372.21 126.058 372.21 126.058 C 372.21 126.058 380.769 127.228 380.769 117.634 C 380.769 108.037 380.769 99.31 380.769 99.31 L 364.806 99.31 L 364.806 111.457 L 329.28 111.457 L 329.28 78.433 L 363.531 78.433 L 363.531 88.282 L 364.752 88.285 Z" style="fill: rgb(255, 255, 255);"/>
    <path d="M 386.85 63.733 L 404.001 63.733 L 404.001 111.508 L 439.488 111.508 L 439.488 63.733 L 456.657 63.733 L 456.657 115.222 C 456.657 115.222 457.749 126.247 441.978 126.247 C 426.204 126.247 400.329 126.247 400.329 126.247 C 400.329 126.247 386.853 127.474 386.853 115.222 C 386.85 106.687 386.85 63.733 386.85 63.733 Z" style="fill: rgb(255, 255, 255);"/>
    <path d="M 530.151 100.435 L 530.151 116.446 C 530.151 122.116 525.987 126.283 512.988 126.283 C 501.462 126.283 462.777 126.283 462.777 126.283 L 462.777 63.736 C 462.777 63.736 513.603 63.736 521.601 63.736 C 527.016 63.736 530.154 66.871 530.154 72.31 C 530.154 76.732 530.154 87.658 530.154 89.437 C 530.154 90.796 528.303 93.136 524.052 93.136 C 524.079 93.427 524.052 93.136 524.052 94.324 C 526.905 94.324 530.151 97.57 530.151 100.435 Z M 514.227 110.299 C 514.227 108.853 514.227 105.019 514.227 102.985 C 514.227 100.963 513.75 100.486 513 100.486 C 511.467 100.486 479.949 100.486 479.949 100.486 L 479.949 111.511 C 479.949 111.511 503.703 111.511 511.8 111.511 C 513.564 111.511 514.227 110.848 514.227 110.299 Z M 514.227 85.798 C 514.227 84.352 514.227 80.518 514.227 78.484 C 514.227 76.465 513.75 75.988 513 75.988 C 511.467 75.988 479.949 75.988 479.949 75.988 L 479.949 87.01 C 479.949 87.01 503.703 87.01 511.8 87.01 C 513.564 87.01 514.227 86.347 514.227 85.798 Z" style="fill: rgb(255, 255, 255);"/>
    <polygon points="536.226 126.28 600 126.28 600 111.433 552.15 111.433 552.15 100.561 579.099 100.561 579.099 87.01 552.15 87.01 552.15 77.209 598.776 77.209 598.776 63.658 536.226 63.658" style="fill: rgb(255, 255, 255);"/>
    <polygon points="234.369 0.652 234.369 8.002 249.066 8.002 249.066 47.125 258.969 47.125 258.969 8.002 273.567 8.002 273.567 0.652" style="fill: rgb(255, 255, 255);"/>
    <polygon points="13.227 0.034 13.227 46.507 21.801 46.507 21.801 12.361 40.176 46.507 49.899 46.507 49.899 0.034 40.101 0.034 40.101 28.054 25.401 0.034" style="fill: rgb(255, 255, 255);"/>
    <polygon points="160.212 0.034 160.212 46.507 168.786 46.507 168.786 12.361 187.161 46.507 196.887 46.507 196.887 0.034 187.086 0.034 187.086 28.054 172.389 0.034" style="fill: rgb(255, 255, 255);"/>
    <rect x="100.182" y="0.034" width="9.78" height="46.473" style="fill: rgb(255, 255, 255);"/>
    <path d="M 321.927 17.158 L 321.927 18.409 L 348.876 18.409 L 348.876 25.759 L 321.927 25.759 C 321.927 25.759 321.927 32.938 321.927 35.56 C 321.927 36.613 324.513 39.196 325.563 39.196 C 328.662 39.196 348.876 39.196 348.876 39.196 L 348.876 46.612 C 348.876 46.612 329.07 46.612 321.927 46.612 C 316.887 46.612 313.326 42.28 313.326 38.011 C 313.326 36.991 313.326 15.961 313.326 8.587 C 313.326 3.241 316.527 0.034 321.876 0.034 L 348.876 0.034 L 348.876 7.384 C 348.876 7.384 332.592 7.384 326.826 7.384 C 324.477 7.384 321.927 9.937 321.927 11.137" style="fill: rgb(255, 255, 255);"/>
    <path d="M 509.424 8.611 L 509.424 38.083 C 509.424 40.312 503.13 46.609 499.479 46.609 C 492.126 46.609 472.602 46.609 472.602 46.609 L 472.602 0.034 C 472.602 0.034 491.664 0.034 497.028 0.034 C 504.621 0.034 509.424 4.837 509.424 8.611 Z M 500.751 35.584 C 500.751 32.398 500.751 17.908 500.751 11.134 C 500.751 10.276 497.862 7.384 495.84 7.384 C 492.126 7.384 481.176 7.384 481.176 7.384 L 481.176 40.459 C 481.176 40.459 491.649 40.459 495.876 40.459 C 497.382 40.459 500.751 37.09 500.751 35.584 Z" style="fill: rgb(255, 255, 255);"/>
    <path d="M 588.999 11.059 C 588.999 14.467 588.999 28.75 588.999 35.488 C 588.999 42.529 583.707 47.812 575.598 47.812 C 575.562 47.812 575.538 47.812 575.499 47.812 C 568.53 47.812 570.528 47.812 563.277 47.812 L 563.178 47.812 C 555.339 47.812 550.146 42.898 549.789 36.223 C 549.777 35.977 549.777 35.734 549.777 35.488 C 549.777 30.832 549.777 15.67 549.777 11.062 C 549.777 10.216 549.777 9.727 549.777 9.727 C 549.777 5.047 554.823 0.001 560.766 0.001 C 565.161 0.001 577.914 0.001 577.914 0.001 C 585.105 -0.002 588.999 3.883 588.999 11.059 Z M 579.138 34.372 C 579.138 33.22 579.138 14.356 579.138 12.286 C 579.138 10.486 576.003 7.348 574.239 7.348 C 572.475 7.348 564.513 7.348 564.513 7.348 C 561.99 7.348 559.539 9.799 559.539 12.088 C 559.539 13.585 559.539 32.032 559.539 34.372 C 559.539 37.861 560.874 39.199 563.25 39.199 C 565.431 39.199 571.41 39.199 574.314 39.199 C 576.69 39.199 579.138 36.748 579.138 34.372 Z" style="fill: rgb(255, 255, 255);"/>
    <polygon points="389.904 0.652 389.904 47.125 398.478 47.125 398.478 12.979 416.853 47.125 426.576 47.125 426.576 0.652 416.778 0.652 416.778 28.672 402.078 0.652" style="fill: rgb(255, 255, 255);"/>
  </g>
</svg>
